images_breeze_svg/cmd/32/watermark.svg

<svg viewBox="0 0 32 32" xmlns="http://www.w3.org/2000/svg"><path d="m19 4 7 7v1 15 1h-1-6-1-12v-24h12zm-1 1h-11v22h11 1 6v-15h-7z" fill="#4d4d4d"/><path d="m20.506705 13.607422-1.355469 6.216797a.03409376.03409376 0 0 1 0 .002.03409376.03409376 0 0 1 -.0059.0098.03409376.03409376 0 0 1 -.002.002.03409376.03409376 0 0 1 -.0039.0059.03409376.03409376 0 0 1 -.0059.0039.03409376.03409376 0 0 1 -.0098.002.03409376.03409376 0 0 1 -.01367 0 .03409376.03409376 0 0 1 -.0098-.0039.03409376.03409376 0 0 1 -.002-.002.03409376.03409376 0 0 1 -.0059-.0039.03409376.03409376 0 0 1 -.0039-.0059.03409376.03409376 0 0 1 -.0039-.0059.03409376.03409376 0 0 1 0-.002l-2.046875-6.183594h-2.074219l-2.052734 6.19336a.03409376.03409376 0 0 1 -.0059.0098.03409376.03409376 0 0 1 -.0039.0059.03409376.03409376 0 0 1 -.002.002.03409376.03409376 0 0 1 -.0059.0039.03409376.03409376 0 0 1 -.0098.002.03409376.03409376 0 0 1 -.01367 0 .03409376.03409376 0 0 1 -.0098-.0039.03409376.03409376 0 0 1 -.0059-.0039.03409376.03409376 0 0 1 -.002-.002.03409376.03409376 0 0 1 -.0039-.0059.03409376.03409376 0 0 1 -.0039-.0059.03409376.03409376 0 0 1 0-.0039l-1.349082-6.189554-2.1210939.417969 2.2167969 10.138672h2.136719l2.240234-6.75586a.03409376.03409376 0 0 1 .0059-.0098.03409376.03409376 0 0 1 .0039-.0059.03409376.03409376 0 0 1 .002-.002.03409376.03409376 0 0 1 .0059-.0039.03409376.03409376 0 0 1 .0098-.002.03409376.03409376 0 0 1 .01367 0 .03409376.03409376 0 0 1 .0098.0039.03409376.03409376 0 0 1 .0059.0039.03409376.03409376 0 0 1 .002.002.03409376.03409376 0 0 1 .0039.0059.03409376.03409376 0 0 1 .0039.0059.03409376.03409376 0 0 1 0 .002l2.238281 6.75586h2.138672l2.214843-10.175781z" fill="#1d99f3" stroke-width="1.33333"/></svg>

<?xml version="1.0" encoding="UTF-8" standalone="no"?>
<svg
   xmlns:dc="http://purl.org/dc/elements/1.1/"
   xmlns:cc="http://creativecommons.org/ns#"
   xmlns:rdf="http://www.w3.org/1999/02/22-rdf-syntax-ns#"
   xmlns:svg="http://www.w3.org/2000/svg"
   xmlns="http://www.w3.org/2000/svg"
   xmlns:sodipodi="http://sodipodi.sourceforge.net/DTD/sodipodi-0.dtd"
   xmlns:inkscape="http://www.inkscape.org/namespaces/inkscape"
   viewBox="0 0 32 32"
   version="1.1"
   id="svg4"
   sodipodi:docname="watermark.svg"
   inkscape:version="0.92.4 (unknown)"
   inkscape:export-filename="/home/rizmut/Dokumen/Rizmut/Github/libreoffice-style-breeze/images_breeze/cmd/32/watermark.png"
   inkscape:export-xdpi="96"
   inkscape:export-ydpi="96">
  <metadata
     id="metadata10">
    <rdf:RDF>
      <cc:Work
         rdf:about="">
        <dc:format>image/svg+xml</dc:format>
        <dc:type
           rdf:resource="http://purl.org/dc/dcmitype/StillImage" />
        <dc:title></dc:title>
      </cc:Work>
    </rdf:RDF>
  </metadata>
  <defs
     id="defs8" />
  <sodipodi:namedview
     pagecolor="#ffffff"
     bordercolor="#666666"
     borderopacity="1"
     objecttolerance="10"
     gridtolerance="10"
     guidetolerance="10"
     inkscape:pageopacity="0"
     inkscape:pageshadow="2"
     inkscape:window-width="1360"
     inkscape:window-height="714"
     id="namedview6"
     showgrid="true"
     inkscape:zoom="14.75"
     inkscape:cx="14.594583"
     inkscape:cy="11.632758"
     inkscape:window-x="0"
     inkscape:window-y="28"
     inkscape:window-maximized="1"
     inkscape:current-layer="svg4"
     inkscape:snap-global="false">
    <inkscape:grid
       type="xygrid"
       id="grid817" />
  </sodipodi:namedview>
  <path
     style="fill:#4d4d4d;fill-opacity:1"
     d="m 19,4 7,7 v 1 15 1 H 25 19 18 6 V 4 H 18 Z M 18,5 H 7 v 22 h 11 1 6 V 12 h -7 z"
     id="path2"
     inkscape:connector-curvature="0" />
  <path
     style="fill:#1d99f3;stroke-width:1.33333004"
     d="m 20.506705,13.607422 -1.355469,6.216797 a 0.03409376,0.03409376 0 0 1 0,0.002 0.03409376,0.03409376 0 0 1 -0.0059,0.0098 0.03409376,0.03409376 0 0 1 -0.002,0.002 0.03409376,0.03409376 0 0 1 -0.0039,0.0059 0.03409376,0.03409376 0 0 1 -0.0059,0.0039 0.03409376,0.03409376 0 0 1 -0.0098,0.002 0.03409376,0.03409376 0 0 1 -0.01367,0 0.03409376,0.03409376 0 0 1 -0.0098,-0.0039 0.03409376,0.03409376 0 0 1 -0.002,-0.002 0.03409376,0.03409376 0 0 1 -0.0059,-0.0039 0.03409376,0.03409376 0 0 1 -0.0039,-0.0059 0.03409376,0.03409376 0 0 1 -0.0039,-0.0059 0.03409376,0.03409376 0 0 1 0,-0.002 l -2.046875,-6.183594 h -2.074219 l -2.052734,6.19336 a 0.03409376,0.03409376 0 0 1 -0.0059,0.0098 0.03409376,0.03409376 0 0 1 -0.0039,0.0059 0.03409376,0.03409376 0 0 1 -0.002,0.002 0.03409376,0.03409376 0 0 1 -0.0059,0.0039 0.03409376,0.03409376 0 0 1 -0.0098,0.002 0.03409376,0.03409376 0 0 1 -0.01367,0 0.03409376,0.03409376 0 0 1 -0.0098,-0.0039 0.03409376,0.03409376 0 0 1 -0.0059,-0.0039 0.03409376,0.03409376 0 0 1 -0.002,-0.002 0.03409376,0.03409376 0 0 1 -0.0039,-0.0059 0.03409376,0.03409376 0 0 1 -0.0039,-0.0059 0.03409376,0.03409376 0 0 1 0,-0.0039 L 11.494986,13.644531 9.3738921,14.0625 11.590689,24.201172 h 2.136719 l 2.240234,-6.75586 a 0.03409376,0.03409376 0 0 1 0.0059,-0.0098 0.03409376,0.03409376 0 0 1 0.0039,-0.0059 0.03409376,0.03409376 0 0 1 0.002,-0.002 0.03409376,0.03409376 0 0 1 0.0059,-0.0039 0.03409376,0.03409376 0 0 1 0.0098,-0.002 0.03409376,0.03409376 0 0 1 0.01367,0 0.03409376,0.03409376 0 0 1 0.0098,0.0039 0.03409376,0.03409376 0 0 1 0.0059,0.0039 0.03409376,0.03409376 0 0 1 0.002,0.002 0.03409376,0.03409376 0 0 1 0.0039,0.0059 0.03409376,0.03409376 0 0 1 0.0039,0.0059 0.03409376,0.03409376 0 0 1 0,0.002 l 2.238281,6.75586 h 2.138672 l 2.214843,-10.175781 z"
     id="path4"
     inkscape:connector-curvature="0" />
</svg>
